assets/svg/fa-minus-square.svg

<svg xmlns="http://www.w3.org/2000/svg" width="100%" height="100%" viewBox="0 0 448 512"><path fill="currentColor" d="M108 284c-6.6 0-12-5.4-12-12v-32c0-6.6 5.4-12 12-12h232c6.6 0 12 5.4 12 12v32c0 6.6-5.4 12-12 12h-232zM448 80v352c0 26.5-21.5 48-48 48h-352c-26.5 0-48-21.5-48-48v-352c0-26.5 21.5-48 48-48h352c26.5 0 48 21.5 48 48zM400 426v-340c0-3.3-2.7-6-6-6h-340c-3.3 0-6 2.7-6 6v340c0 3.3 2.7 6 6 6h340c3.3 0 6-2.7 6-6z" /></svg>

<svg xmlns="http://www.w3.org/2000/svg" width="100%" height="100%" viewBox="0 0 448 512"><path fill="currentColor" d="M108 284C101.4 284 96 278.6 96 272V240C96 233.4 101.4 228 108 228H340C346.6 228 352 233.4 352 240V272C352 278.6 346.6 284 340 284H108zM448 80V432C448 458.5 426.5 480 400 480H48C21.5 480 0 458.5 0 432V80C0 53.5 21.5 32 48 32H400C426.5 32 448 53.5 448 80zM400 426V86C400 82.7 397.3 80 394 80H54C50.7 80 48 82.7 48 86V426C48 429.3 50.7 432 54 432H394C397.3 432 400 429.3 400 426z" /></svg>
